X:413
T:Lady Elizabeth Campbell
R:Reel
B:The Athole Collection
M:C|
L:1/8
K:A
A|d2fd cAec|d2 cA B=GGB|d2fd cAed|ceBe cAA:|
e|a2cA c/d/e cA|d2cA B=GGB|a2cA c/d/e cA|dfed cAAg|
a2cA c/d/e cA|d2cA B=GGB|fgae fdcA|ceBe cAA||

